!!!OTL: Die dienende Schwester Es wohnt ein Markgraf an dem Rhein,
!!!ARE: Europa, Mitteleuropa, Deutschland (), Brandenburg
!!!YOR: 4, S. 108
!!    1856 gedruckt in Berlin
!!!SCT: Q0075T
!!!YEM: Copyright 1995, estate of Helmut Schaffrath.
**kern
*ICvox
*Ivox
*M2/4
*k[b-]
*F:
{4c
=1
4f
4c
=2
4f
4cc
=3
8a
8a
8a}
{8f
=4
8g
8g
8g
8e
=5
8f
8a
8f}
{8c
=6
4f
4c
=7
8f
8dd
8cc
8b-
=8
4a
4g
=9
4f}
==
!!!AGN: Ballade, Adelige als Dienstmagd, Tod; Kinder - Spiel, Tanz
!!!ONB: ESAC (Essen Associative Code) Database: BALLADE
!!!AMT: simple duple
!!!AIN: vox
!!!EED: Helmut Schaffrath
!!!EEV: 1.0
*-
